svgs/binary_eye.svg

<svg width="192" height="192" viewBox="0 0 192 192" fill="none" xmlns="http://www.w3.org/2000/svg">
    <path fill-rule="evenodd" clip-rule="evenodd" d="M96 28C58.4446 28 28 58.4446 28 96C28 133.555 58.4446 164 96 164C133.555 164 164 133.555 164 96C164 58.4446 133.555 28 96 28ZM16 96C16 51.8172 51.8172 16 96 16C140.183 16 176 51.8172 176 96C176 140.183 140.183 176 96 176C51.8172 176 16 140.183 16 96Z" fill="#000000"/>
    <path d="M102 149.884C102 150.907 101.229 151.768 100.209 151.844C98.8196 151.947 97.4159 152 96 152C94.5841 152 93.1804 151.947 91.7909 151.844C90.7711 151.768 90 150.907 90 149.884V42.1159C90 41.0934 90.7711 40.2316 91.7909 40.1558C93.1804 40.0525 94.5841 40 96 40C97.4159 40 98.8196 40.0525 100.209 40.1558C101.229 40.2316 102 41.0934 102 42.1159V149.884Z" fill="#000000"/>
    <path d="M124 142.201C124 143.629 123.244 144.959 121.98 145.622C119.599 146.871 117.118 147.953 114.551 148.854C113.289 149.297 112 148.337 112 146.999V45.001C112 43.6631 113.289 42.7027 114.551 43.1458C117.118 44.0467 119.599 45.1292 121.98 46.3781C123.244 47.0414 124 48.3711 124 49.799V142.201Z" fill="#000000"/>
    <path d="M152 96C152 107.012 148.822 117.281 143.332 125.941C142.316 127.544 140 126.776 140 124.878V67.122C140 65.2243 142.316 64.4561 143.332 66.0588C148.822 74.7186 152 84.9881 152 96Z" fill="#000000"/>
    <path d="M62 53.4751C62 52.2296 62.5749 51.0478 63.59 50.3262C67.8129 47.3242 72.4701 44.8932 77.4489 43.1458C78.7113 42.7027 80 43.6631 80 45.001V146.999C80 148.337 78.7113 149.297 77.4489 148.854C72.4701 147.107 67.8129 144.676 63.59 141.674C62.5749 140.952 62 139.77 62 138.525V53.4751Z" fill="#000000"/>
    <path d="M40 96C40 84.9881 43.1784 74.7186 48.6679 66.0588C49.6839 64.4561 52 65.2243 52 67.122V124.878C52 126.776 49.6839 127.544 48.6679 125.941C43.1784 117.281 40 107.012 40 96Z" fill="#000000"/>
</svg>

<svg width="192" height="192" viewBox="0 0 192 192" fill="none" xmlns="http://www.w3.org/2000/svg"><path fill-rule="evenodd" clip-rule="evenodd" d="M96 28c-37.555 0-68 30.445-68 68s30.445 68 68 68 68-30.445 68-68-30.445-68-68-68ZM16 96c0-44.183 35.817-80 80-80s80 35.817 80 80-35.817 80-80 80-80-35.817-80-80Z" fill="#000"/><path d="M102 149.884c0 1.023-.771 1.884-1.791 1.96a56.926 56.926 0 0 1-8.418 0c-1.02-.076-1.791-.937-1.791-1.96V42.116c0-1.023.771-1.884 1.79-1.96a56.768 56.768 0 0 1 8.419 0c1.02.076 1.791.937 1.791 1.96v107.768ZM124 142.201c0 1.428-.756 2.758-2.02 3.421a55.7 55.7 0 0 1-7.429 3.232c-1.262.443-2.551-.517-2.551-1.855V45.001c0-1.338 1.289-2.298 2.551-1.855 2.567.9 5.048 1.983 7.429 3.232 1.264.663 2.02 1.993 2.02 3.421v92.402ZM152 96c0 11.012-3.178 21.281-8.668 29.941-1.016 1.603-3.332.835-3.332-1.063V67.122c0-1.898 2.316-2.666 3.332-1.063C148.822 74.719 152 84.989 152 96ZM62 53.475c0-1.245.575-2.427 1.59-3.149a55.83 55.83 0 0 1 13.859-7.18C78.71 42.703 80 43.663 80 45v101.998c0 1.338-1.289 2.298-2.551 1.855a55.816 55.816 0 0 1-13.859-7.18c-1.015-.722-1.59-1.904-1.59-3.149v-85.05ZM40 96c0-11.012 3.178-21.281 8.668-29.941C49.684 64.456 52 65.224 52 67.122v57.756c0 1.898-2.316 2.666-3.332 1.063C43.178 117.281 40 107.012 40 96Z" fill="#000"/></svg>
